src/assets/icons/13-icon-websockets.svg

<svg width="64" height="64" viewBox="0 0 64 64" fill="none" xmlns="http://www.w3.org/2000/svg">
    <path d="M63.9879 31.295C63.8139 20.595 57.8479 10.177 48.6179 4.69099C41.3459 0.161987 32.1599 -1.05701 23.8859 1.03299C11.4329 4.16799 1.50488 15.446 0.242881 28.3C-1.32512 40.44 4.81488 53.066 15.3079 59.292C25.5839 65.736 39.5609 65.475 49.6079 58.692C58.6649 52.814 64.2819 42.092 63.9779 31.304L63.9879 31.295ZM33.7699 59.25C19.2269 60.687 5.16288 48.365 4.76988 33.778C3.66988 21.935 11.4749 10.222 22.6219 6.30299C38.2539 0.0329871 57.4559 11.615 59.0669 28.38C61.5929 43.444 49.0529 58.78 33.7699 59.25ZM24.1999 30.38L45.2299 13.18L33.8659 30.423C30.6439 30.423 27.4219 30.424 24.1999 30.38ZM30.1129 33.56L39.7789 33.604L18.7489 50.847L30.1129 33.56Z" fill="white"/>
</svg>

<svg xmlns="http://www.w3.org/2000/svg" width="64" height="64" fill="none"><path fill="#fff" d="M63.99 31.3A32.07 32.07 0 0 0 48.62 4.7C41.35.15 32.16-1.07 23.89 1.02 11.43 4.17 1.5 15.45.24 28.3c-1.57 12.14 4.57 24.77 15.07 31 10.27 6.44 24.25 6.17 34.3-.6a32.15 32.15 0 0 0 14.37-27.4ZM33.77 59.25c-14.54 1.44-28.6-10.88-29-25.47-1.1-11.85 6.7-23.56 17.85-27.48C38.25.03 57.46 11.62 59.07 28.38c2.52 15.06-10.02 30.4-25.3 30.87ZM24.2 30.38l21.03-17.2-11.36 17.24c-3.23 0-6.45 0-9.67-.04Zm5.91 3.18 9.67.04-21.03 17.25L30.1 33.56Z"/></svg>
